app/component-library/components/Icons/Icon/assets/heart.svg

<svg width="24" height="24" viewBox="0 0 24 24" fill="none" xmlns="http://www.w3.org/2000/svg">
<path d="M16.7208 3.10001C14.9108 3.10001 13.2908 3.98001 12.2808 5.33001C11.2708 3.98001 9.65076 3.10001 7.84076 3.10001C4.77076 3.10001 2.28076 5.60001 2.28076 8.69001C2.28076 9.88001 2.47076 10.98 2.80076 12C4.38076 17 9.25076 19.99 11.6608 20.81C12.0008 20.93 12.5608 20.93 12.9008 20.81C15.3108 19.99 20.1808 17 21.7608 12C22.0908 10.98 22.2808 9.88001 22.2808 8.69001C22.2808 5.60001 19.7908 3.10001 16.7208 3.10001Z" fill="currentColor"/>
</svg>

<svg xmlns="http://www.w3.org/2000/svg" width="24" height="24" viewBox="0 0 24 24" fill="none"><path d="M16.72 3.1c-1.81 0-3.43.88-4.44 2.23A5.549 5.549 0 0 0 7.84 3.1c-3.07 0-5.56 2.5-5.56 5.59 0 1.19.19 2.29.52 3.31 1.58 5 6.45 7.99 8.86 8.81.34.12.9.12 1.24 0 2.41-.82 7.28-3.81 8.86-8.81.33-1.02.52-2.12.52-3.31 0-3.09-2.49-5.59-5.56-5.59z" fill="currentColor"/></svg>
